; G-Code generated by Simplify3D(R) Version 4.0.0
; Oct 31, 2017 at 9:22:32 PM
; Settings Summary
;   processName,Process1
;   applyToModels,Microtesting Specimen 3p5 by 2p5
;   profileName,DreamMaker OverLord Pro (modified)
;   profileVersion,2015-09-04 08:00:00
;   baseProfile,
;   printMaterial,FF Easyfil PLA
;   printQuality,High
;   printExtruders,
;   extruderName,Extruder 1
;   extruderToolheadNumber,0
;   extruderDiameter,0.4
;   extruderAutoWidth,1
;   extruderWidth,0.48
;   extrusionMultiplier,1
;   extruderUseRetract,1
;   extruderRetractionDistance,6
;   extruderExtraRestartDistance,0
;   extruderRetractionZLift,0.15
;   extruderRetractionSpeed,4800
;   extruderUseCoasting,1
;   extruderCoastingDistance,0.2
;   extruderUseWipe,0
;   extruderWipeDistance,5
;   primaryExtruder,0
;   layerHeight,0.15
;   topSolidLayers,4
;   bottomSolidLayers,4
;   perimeterOutlines,2
;   printPerimetersInsideOut,0
;   startPointOption,2
;   startPointOriginX,0
;   startPointOriginY,0
;   sequentialIslands,0
;   spiralVaseMode,0
;   firstLayerHeightPercentage,150
;   firstLayerWidthPercentage,100
;   firstLayerUnderspeed,0.6
;   useRaft,0
;   raftExtruder,0
;   raftTopLayers,3
;   raftBaseLayers,2
;   raftOffset,3
;   raftSeparationDistance,0.14
;   raftTopInfill,100
;   aboveRaftSpeedMultiplier,0.3
;   useSkirt,0
;   skirtExtruder,0
;   skirtLayers,1
;   skirtOutlines,3
;   skirtOffset,5
;   usePrimePillar,0
;   primePillarExtruder,999
;   primePillarWidth,12
;   primePillarLocation,7
;   primePillarSpeedMultiplier,1
;   useOozeShield,0
;   oozeShieldExtruder,999
;   oozeShieldOffset,2
;   oozeShieldOutlines,1
;   oozeShieldSidewallShape,1
;   oozeShieldSidewallAngle,30
;   oozeShieldSpeedMultiplier,1
;   infillExtruder,0
;   internalInfillPattern,Fast Honeycomb
;   externalInfillPattern,Rectilinear
;   infillPercentage,25
;   outlineOverlapPercentage,40
;   infillExtrusionWidthPercentage,100
;   minInfillLength,5
;   infillLayerInterval,1
;   internalInfillAngles,0
;   overlapInternalInfillAngles,0
;   externalInfillAngles,45,-45
;   generateSupport,0
;   supportExtruder,0
;   supportInfillPercentage,20
;   supportExtraInflation,0
;   supportBaseLayers,0
;   denseSupportExtruder,0
;   denseSupportLayers,4
;   denseSupportInfillPercentage,60
;   supportLayerInterval,1
;   supportHorizontalPartOffset,0.5
;   supportUpperSeparationLayers,2
;   supportLowerSeparationLayers,2
;   supportType,0
;   supportGridSpacing,2
;   maxOverhangAngle,60
;   supportAngles,45
;   temperatureName,Extruder 1 Temperature,Heated Bed
;   temperatureNumber,0,0
;   temperatureSetpointCount,1,1
;   temperatureSetpointLayers,1,1
;   temperatureSetpointTemperatures,215,55
;   temperatureStabilizeAtStartup,1,1
;   temperatureHeatedBed,0,1
;   temperatureRelayBetweenLayers,0,0
;   temperatureRelayBetweenLoops,0,0
;   fanLayers,1,2
;   fanSpeeds,0,100
;   blipFanToFullPower,0
;   adjustSpeedForCooling,1
;   minSpeedLayerTime,15
;   minCoolingSpeedSlowdown,20
;   increaseFanForCooling,0
;   minFanLayerTime,45
;   maxCoolingFanSpeed,100
;   increaseFanForBridging,0
;   bridgingFanSpeed,100
;   use5D,1
;   relativeEdistances,0
;   allowEaxisZeroing,1
;   independentExtruderAxes,0
;   includeM10123,0
;   stickySupport,1
;   applyToolheadOffsets,0
;   gcodeXoffset,0
;   gcodeYoffset,0
;   gcodeZoffset,0
;   overrideMachineDefinition,1
;   machineTypeOverride,1
;   strokeXoverride,175
;   strokeYoverride,175
;   strokeZoverride,260
;   originOffsetXoverride,87.5
;   originOffsetYoverride,95
;   originOffsetZoverride,0
;   homeXdirOverride,0
;   homeYdirOverride,0
;   homeZdirOverride,1
;   flipXoverride,1
;   flipYoverride,-1
;   flipZoverride,1
;   toolheadOffsets,0,0|0,0|0,0|0,0|0,0|0,0
;   overrideFirmwareConfiguration,1
;   firmwareTypeOverride,RepRap (Marlin/Repetier/Sprinter)
;   GPXconfigOverride,r2
;   baudRateOverride,115200
;   overridePrinterModels,1
;   printerModelsOverride
;   startingGcode,G28 ; home all axes
;   layerChangeGcode,
;   retractionGcode,
;   toolChangeGcode,
;   endingGcode,G28 ; home all axis,M104 S0 ; turn off extruder,M140 S0 ; turn off bed,M84 ; disable motors
;   exportFileFormat,gcode
;   celebration,0
;   celebrationSong,Random Song
;   postProcessing,
;   defaultSpeed,1500
;   outlineUnderspeed,0.4
;   solidInfillUnderspeed,0.8
;   supportUnderspeed,0.8
;   rapidXYspeed,4800
;   rapidZspeed,4800
;   minBridgingArea,50
;   bridgingExtraInflation,0
;   bridgingExtrusionMultiplier,1
;   bridgingSpeedMultiplier,1
;   useFixedBridgingAngle,0
;   fixedBridgingAngle,0
;   applyBridgingToPerimeters,0
;   filamentDiameters,1.75|1.75|1.75|1.75|1.75|1.75
;   filamentPricesPerKg,24.53|24.53|24.53|24.53|24.53|24.53
;   filamentDensities,1.24|1.24|1.24|1.24|1.24|1.24
;   useMinPrintHeight,0
;   minPrintHeight,0
;   useMaxPrintHeight,0
;   maxPrintHeight,0
;   useDiaphragm,0
;   diaphragmLayerInterval,20
;   robustSlicing,1
;   mergeAllIntoSolid,0
;   onlyRetractWhenCrossingOutline,0
;   retractBetweenLayers,1
;   useRetractionMinTravel,0
;   retractionMinTravel,3
;   retractWhileWiping,0
;   onlyWipeOutlines,1
;   avoidCrossingOutline,1
;   maxMovementDetourFactor,3
;   toolChangeRetractionDistance,12
;   toolChangeExtraRestartDistance,-0.5
;   toolChangeRetractionSpeed,600
;   externalThinWallType,0
;   internalThinWallType,2
;   thinWallAllowedOverlapPercentage,10
;   singleExtrusionMinLength,1
;   singleExtrusionMinPrintingWidthPercentage,50
;   singleExtrusionMaxPrintingWidthPercentage,200
;   singleExtrusionEndpointExtension,0.2
;   horizontalSizeCompensation,0
G90
M82
M106 S0
M140 S55
M190 S55
M104 S215 T0
M109 S215 T0
G28 ; home all axes
G92 E0
G1 E-6.0000 F4800
G1 Z0.375 F4800
; process Process1
; layer 1, Z = 0.225
T0
; tool H0.225 W0.480
; outer perimeter
G1 X4.029 Y-5.990 F4800
G1 Z0.225 F4800
G1 E0.0000 F1440
G92 E0
G1 X-4.031 Y-5.990 E0.3619 F360
G1 X-4.810 Y-5.953 E0.3969
G1 X-5.587 Y-5.841 E0.4322
G1 X-6.350 Y-5.655 E0.4674
G1 X-7.091 Y-5.399 E0.5026
G1 X-7.574 Y-5.187 E0.5263
G1 X-8.264 Y-4.816 E0.5615
G1 X-8.918 Y-4.381 E0.5967
G1 X-9.527 Y-3.885 E0.6320
G1 X-10.084 Y-3.334 E0.6672
G1 X-10.429 Y-2.935 E0.6909
G1 X-10.893 Y-2.303 E0.7261
G1 X-11.295 Y-1.629 E0.7613
G1 X-11.631 Y-0.921 E0.7965
G1 X-11.818 Y-0.428 E0.8202
G1 X-12.036 Y0.322 E0.8552
G1 X-12.196 Y1.055 E0.8889
G1 X-12.274 Y1.262 E0.8989
G1 X-12.378 Y1.456 E0.9087
G1 X-12.585 Y1.729 E0.9241
G1 X-12.741 Y1.879 E0.9339
G1 X-13.023 Y2.074 E0.9492
G1 X-13.218 Y2.167 E0.9589
G1 X-13.532 Y2.259 E0.9737
G1 X-22.760 Y2.260 E1.3880
G1 X-22.760 Y-17.260 E2.2645
G1 X-13.529 Y-17.260 E2.6790
G1 X-13.386 Y-17.226 E2.6855
G1 X-13.178 Y-17.150 E2.6955
G1 X-12.878 Y-16.984 E2.7109
G1 X-12.705 Y-16.848 E2.7208
G1 X-12.551 Y-16.691 E2.7307
G1 X-12.352 Y-16.412 E2.7460
G1 X-12.254 Y-16.215 E2.7559
G1 X-12.181 Y-16.003 E2.7660
G1 X-12.037 Y-15.324 E2.7972
G1 X-11.899 Y-14.820 E2.8207
G1 X-11.728 Y-14.324 E2.8442
G1 X-11.527 Y-13.841 E2.8677
G1 X-11.295 Y-13.371 E2.8912
G1 X-11.034 Y-12.917 E2.9147
G1 X-10.745 Y-12.481 E2.9382
G1 X-10.428 Y-12.063 E2.9617
G1 X-10.086 Y-11.667 E2.9853
G1 X-9.717 Y-11.292 E3.0089
G1 X-9.127 Y-10.779 E3.0440
G1 X-8.704 Y-10.467 E3.0676
G1 X-8.262 Y-10.183 E3.0912
G1 X-7.572 Y-9.812 E3.1263
G1 X-6.848 Y-9.508 E3.1616
G1 X-6.098 Y-9.275 E3.1969
G1 X-5.329 Y-9.114 E3.2322
G1 X-4.550 Y-9.027 E3.2673
G1 X-4.029 Y-9.010 E3.2908
G1 X4.031 Y-9.010 E3.6526
G1 X4.810 Y-9.047 E3.6877
G1 X5.587 Y-9.159 E3.7229
G1 X6.350 Y-9.345 E3.7582
G1 X7.091 Y-9.601 E3.7934
G1 X7.574 Y-9.813 E3.8171
G1 X8.264 Y-10.184 E3.8522
G1 X8.918 Y-10.619 E3.8875
G1 X9.527 Y-11.115 E3.9228
G1 X10.084 Y-11.666 E3.9580
G1 X10.429 Y-12.065 E3.9816
G1 X10.893 Y-12.697 E4.0168
G1 X11.295 Y-13.371 E4.0521
G1 X11.631 Y-14.079 E4.0873
G1 X11.818 Y-14.572 E4.1110
G1 X12.036 Y-15.322 E4.1460
G1 X12.196 Y-16.055 E4.1797
G1 X12.274 Y-16.262 E4.1896
G1 X12.379 Y-16.459 E4.1997
G1 X12.506 Y-16.639 E4.2096
G1 X12.746 Y-16.884 E4.2250
G1 X12.920 Y-17.012 E4.2347
G1 X13.221 Y-17.168 E4.2499
G1 X13.532 Y-17.259 E4.2644
G1 X22.760 Y-17.260 E4.6788
G1 X22.760 Y2.260 E5.5552
G1 X13.529 Y2.260 E5.9697
G1 X13.390 Y2.227 E5.9761
G1 X13.073 Y2.100 E5.9915
G1 X12.791 Y1.920 E6.0065
G1 X12.548 Y1.688 E6.0216
G1 X12.352 Y1.412 E6.0368
G1 X12.254 Y1.215 E6.0467
G1 X12.181 Y1.003 E6.0567
G1 X12.037 Y0.324 E6.0879
G1 X11.899 Y-0.180 E6.1114
G1 X11.728 Y-0.676 E6.1349
G1 X11.527 Y-1.159 E6.1584
G1 X11.295 Y-1.629 E6.1819
G1 X11.034 Y-2.083 E6.2054
G1 X10.745 Y-2.519 E6.2290
G1 X10.428 Y-2.937 E6.2525
G1 X10.086 Y-3.333 E6.2760
G1 X9.717 Y-3.708 E6.2996
G1 X9.127 Y-4.221 E6.3347
G1 X8.704 Y-4.533 E6.3583
G1 X8.262 Y-4.817 E6.3819
G1 X7.572 Y-5.188 E6.4171
G1 X6.848 Y-5.492 E6.4523
G1 X6.098 Y-5.725 E6.4876
G1 X5.329 Y-5.886 E6.5229
G1 X4.550 Y-5.973 E6.5581
G1 X4.229 Y-5.984 E6.5725
G1 X4.029 Y-5.990 F360
G92 E0
G1 E-6.0000 F4800
G1 Z0.375 F4800
; inner perimeter
G1 X4.036 Y-6.470 F4800
G1 Z0.225 F4800
G1 E0.0000 F4800
G92 E0
G1 X-4.042 Y-6.470 E0.3627 F630
G1 X-4.855 Y-6.431 E0.3993
G1 X-5.678 Y-6.313 E0.4366
G1 X-6.486 Y-6.116 E0.4739
G1 X-7.266 Y-5.846 E0.5110
G1 X-7.784 Y-5.619 E0.5364
G1 X-8.511 Y-5.228 E0.5735
G1 X-9.203 Y-4.767 E0.6108
G1 X-9.848 Y-4.242 E0.6481
G1 X-10.435 Y-3.663 E0.6852
G1 X-10.805 Y-3.235 E0.7106
G1 X-11.293 Y-2.569 E0.7477
G1 X-11.719 Y-1.855 E0.7850
G1 X-12.073 Y-1.109 E0.8220
G1 X-12.274 Y-0.580 E0.8475
G1 X-12.502 Y0.203 E0.8841
G1 X-12.657 Y0.918 E0.9169
G1 X-12.712 Y1.063 E0.9239
G1 X-12.783 Y1.197 E0.9307
G1 X-12.944 Y1.409 E0.9427
G1 X-13.045 Y1.506 E0.9489
G1 X-13.264 Y1.657 E0.9609
G1 X-13.390 Y1.717 E0.9672
G1 X-13.601 Y1.779 E0.9770
G1 X-22.280 Y1.780 E1.3667
G1 X-22.280 Y-16.780 E2.2001
G1 X-13.586 Y-16.780 E2.5905
G1 X-13.525 Y-16.765 E2.5933
G1 X-13.377 Y-16.712 E2.6003
G1 X-13.144 Y-16.583 E2.6123
G1 X-13.025 Y-16.489 E2.6191
G1 X-12.919 Y-16.382 E2.6259
G1 X-12.765 Y-16.165 E2.6378
G1 X-12.698 Y-16.029 E2.6446
G1 X-12.644 Y-15.875 E2.6520
G1 X-12.504 Y-15.211 E2.6824
G1 X-12.357 Y-14.678 E2.7072
G1 X-12.177 Y-14.154 E2.7321
G1 X-11.964 Y-13.642 E2.7570
G1 X-11.719 Y-13.145 E2.7819
G1 X-11.443 Y-12.665 E2.8068
G1 X-11.136 Y-12.203 E2.8317
G1 X-10.801 Y-11.761 E2.8566
G1 X-10.439 Y-11.342 E2.8815
G1 X-10.047 Y-10.942 E2.9066
G1 X-9.428 Y-10.405 E2.9434
G1 X-8.977 Y-10.072 E2.9685
G1 X-8.506 Y-9.769 E2.9937
G1 X-7.779 Y-9.378 E3.0308
G1 X-7.012 Y-9.057 E3.0681
G1 X-6.219 Y-8.810 E3.1054
G1 X-5.405 Y-8.639 E3.1427
G1 X-4.585 Y-8.547 E3.1798
G1 X-4.036 Y-8.530 E3.2044
G1 X4.042 Y-8.530 E3.5672
G1 X4.855 Y-8.569 E3.6037
G1 X5.678 Y-8.687 E3.6410
G1 X6.486 Y-8.884 E3.6784
G1 X7.266 Y-9.154 E3.7154
G1 X7.784 Y-9.381 E3.7408
G1 X8.511 Y-9.772 E3.7779
G1 X9.203 Y-10.233 E3.8152
G1 X9.848 Y-10.758 E3.8526
G1 X10.435 Y-11.337 E3.8896
G1 X10.805 Y-11.765 E3.9150
G1 X11.293 Y-12.431 E3.9521
G1 X11.719 Y-13.145 E3.9894
G1 X12.073 Y-13.891 E4.0265
G1 X12.274 Y-14.420 E4.0519
G1 X12.502 Y-15.203 E4.0885
G1 X12.657 Y-15.918 E4.1214
G1 X12.712 Y-16.063 E4.1283
G1 X12.789 Y-16.207 E4.1357
G1 X12.876 Y-16.330 E4.1424
G1 X13.063 Y-16.520 E4.1544
G1 X13.175 Y-16.603 E4.1607
G1 X13.401 Y-16.721 E4.1721
G1 X13.601 Y-16.779 E4.1815
G1 X22.280 Y-16.780 E4.5712
G1 X22.280 Y1.780 E5.4045
G1 X13.586 Y1.780 E5.7949
G1 X13.536 Y1.768 E5.7972
G1 X13.294 Y1.671 E5.8089
G1 X13.089 Y1.540 E5.8198
G1 X12.913 Y1.372 E5.8308
G1 X12.765 Y1.165 E5.8422
G1 X12.698 Y1.029 E5.8490
G1 X12.644 Y0.875 E5.8563
G1 X12.504 Y0.211 E5.8868
G1 X12.357 Y-0.322 E5.9116
G1 X12.177 Y-0.846 E5.9365
G1 X11.964 Y-1.358 E5.9614
G1 X11.719 Y-1.855 E5.9863
G1 X11.443 Y-2.335 E6.0112
G1 X11.136 Y-2.797 E6.0361
G1 X10.801 Y-3.239 E6.0609
G1 X10.439 Y-3.658 E6.0858
G1 X10.047 Y-4.058 E6.1110
G1 X9.428 Y-4.595 E6.1478
G1 X8.977 Y-4.928 E6.1729
G1 X8.506 Y-5.231 E6.1981
G1 X7.779 Y-5.622 E6.2351
G1 X7.012 Y-5.943 E6.2725
G1 X6.219 Y-6.190 E6.3098
G1 X5.405 Y-6.361 E6.3471
G1 X4.585 Y-6.453 E6.3842
G1 X4.236 Y-6.464 E6.3998
G1 X4.036 Y-6.470 F630
G92 E0
G1 E-6.0000 F4800
G1 Z0.375 F4800
; outer perimeter
G1 X15.608 Y-3.122 F4800
G1 Z0.225 F4800
G1 E0.0000 F4800
G92 E0
G1 X15.527 Y-2.760 E0.0166 F360
G1 X15.518 Y-2.681 E0.0202
G1 X15.518 Y-2.307 E0.0370
G1 X15.591 Y-1.934 E0.0541
G1 X15.734 Y-1.581 E0.0712
G1 X15.941 Y-1.262 E0.0883
G1 X16.205 Y-0.988 E0.1053
G1 X16.516 Y-0.769 E0.1224
G1 X16.863 Y-0.613 E0.1395
G1 X17.234 Y-0.527 E0.1566
G1 X17.614 Y-0.512 E0.1737
G1 X17.986 Y-0.570 E0.1906
G1 X18.231 Y-0.649 E0.2021
G1 X18.464 Y-0.758 E0.2137
G1 X18.775 Y-0.971 E0.2306
G1 X19.043 Y-1.241 E0.2477
G1 X19.254 Y-1.558 E0.2648
G1 X19.401 Y-1.909 E0.2819
G1 X19.479 Y-2.281 E0.2989
G1 X19.485 Y-2.661 E0.3160
G1 X19.418 Y-3.036 E0.3331
G1 X19.281 Y-3.391 E0.3502
G1 X19.079 Y-3.713 E0.3673
G1 X18.819 Y-3.991 E0.3844
G1 X18.514 Y-4.213 E0.4013
G1 X18.285 Y-4.329 E0.4128
G1 X18.042 Y-4.416 E0.4244
G1 X17.672 Y-4.484 E0.4413
G1 X17.291 Y-4.480 E0.4584
G1 X16.918 Y-4.404 E0.4755
G1 X16.567 Y-4.259 E0.4926
G1 X16.249 Y-4.049 E0.5096
G1 X15.977 Y-3.783 E0.5267
G1 X15.761 Y-3.470 E0.5438
G1 X15.689 Y-3.305 E0.5519
G1 X15.608 Y-3.122 F360
G92 E0
G1 E-6.0000 F4800
G1 Z0.375 F4800
; inner perimeter
G1 X15.150 Y-3.272 F4800
G1 Z0.225 F4800
G1 E0.0000 F4800
G92 E0
G1 X15.053 Y-2.840 E0.0199 F630
G1 X15.038 Y-2.707 E0.0259
G1 X15.038 Y-2.260 E0.0460
G1 X15.129 Y-1.796 E0.0672
G1 X15.306 Y-1.358 E0.0884
G1 X15.563 Y-0.962 E0.1096
G1 X15.891 Y-0.622 E0.1308
G1 X16.278 Y-0.350 E0.1521
G1 X16.709 Y-0.157 E0.1733
G1 X17.169 Y-0.049 E0.1945
G1 X17.642 Y-0.031 E0.2157
G1 X18.097 Y-0.101 E0.2364
G1 X18.408 Y-0.201 E0.2511
G1 X18.703 Y-0.340 E0.2657
G1 X19.084 Y-0.601 E0.2865
G1 X19.416 Y-0.937 E0.3077
G1 X19.679 Y-1.330 E0.3289
G1 X19.862 Y-1.765 E0.3501
G1 X19.958 Y-2.228 E0.3713
G1 X19.965 Y-2.701 E0.3925
G1 X19.882 Y-3.166 E0.4138
G1 X19.712 Y-3.607 E0.4350
G1 X19.461 Y-4.007 E0.4562
G1 X19.139 Y-4.353 E0.4774
G1 X18.766 Y-4.624 E0.4981
G1 X18.474 Y-4.771 E0.5128
G1 X18.166 Y-4.881 E0.5275
G1 X17.713 Y-4.964 E0.5482
G1 X17.241 Y-4.960 E0.5694
G1 X16.777 Y-4.865 E0.5906
G1 X16.341 Y-4.685 E0.6118
G1 X15.946 Y-4.424 E0.6330
G1 X15.609 Y-4.094 E0.6543
G1 X15.340 Y-3.705 E0.6755
G1 X15.231 Y-3.455 E0.6877
G1 X15.150 Y-3.272 F630
G92 E0
G1 E-6.0000 F4800
G1 Z0.375 F4800
; outer perimeter
G1 X17.106 Y-10.548 F4800
G1 Z0.225 F4800
G1 E0.0000 F4800
G92 E0
G1 X17.484 Y-10.509 E0.0171 F360
G1 X17.863 Y-10.542 E0.0342
G1 X18.229 Y-10.647 E0.0512
G1 X18.568 Y-10.820 E0.0683
G1 X18.868 Y-11.053 E0.0854
G1 X19.118 Y-11.340 E0.1025
G1 X19.309 Y-11.669 E0.1196
G1 X19.434 Y-12.028 E0.1367
G1 X19.489 Y-12.405 E0.1537
G1 X19.471 Y-12.785 E0.1708
G1 X19.380 Y-13.154 E0.1879
G1 X19.223 Y-13.497 E0.2048
G1 X19.080 Y-13.711 E0.2164
G1 X18.911 Y-13.905 E0.2280
G1 X18.621 Y-14.146 E0.2449
G1 X18.288 Y-14.329 E0.2619
G1 X17.925 Y-14.445 E0.2790
G1 X17.548 Y-14.491 E0.2961
G1 X17.168 Y-14.463 E0.3132
G1 X16.801 Y-14.364 E0.3303
G1 X16.459 Y-14.197 E0.3474
G1 X16.155 Y-13.968 E0.3644
G1 X15.900 Y-13.686 E0.3815
G1 X15.704 Y-13.360 E0.3986
G1 X15.576 Y-13.009 E0.4154
G1 X15.557 Y-12.931 E0.4190
G1 X15.510 Y-12.563 E0.4356
G1 X15.534 Y-12.184 E0.4527
G1 X15.630 Y-11.816 E0.4698
G1 X15.794 Y-11.473 E0.4869
G1 X16.019 Y-11.170 E0.5038
G1 X16.203 Y-10.990 E0.5153
G1 X16.409 Y-10.835 E0.5269
G1 X16.742 Y-10.659 E0.5438
G1 X16.914 Y-10.606 E0.5519
G1 X17.106 Y-10.548 F360
G92 E0
G1 E-6.0000 F4800
G1 Z0.375 F4800
; inner perimeter
G1 X17.010 Y-10.076 F4800
G1 Z0.225 F4800
G1 E0.0000 F4800
G92 E0
G1 X17.480 Y-10.027 E0.0212 F630
G1 X17.951 Y-10.068 E0.0424
G1 X18.405 Y-10.198 E0.0637
G1 X18.827 Y-10.413 E0.0849
G1 X19.199 Y-10.703 E0.1061
G1 X19.510 Y-11.059 E0.1273
G1 X19.748 Y-11.468 E0.1485
G1 X19.903 Y-11.914 E0.1698
G1 X19.970 Y-12.382 E0.1910
G1 X19.948 Y-12.854 E0.2122
G1 X19.836 Y-13.313 E0.2334
G1 X19.643 Y-13.732 E0.2541
G1 X19.462 Y-14.003 E0.2688
G1 X19.247 Y-14.249 E0.2834
G1 X18.892 Y-14.544 E0.3041
G1 X18.478 Y-14.772 E0.3254
G1 X18.028 Y-14.916 E0.3466
G1 X17.559 Y-14.973 E0.3678
G1 X17.088 Y-14.939 E0.3890
G1 X16.631 Y-14.816 E0.4102
G1 X16.207 Y-14.608 E0.4315
G1 X15.829 Y-14.324 E0.4527
G1 X15.513 Y-13.973 E0.4739
G1 X15.269 Y-13.568 E0.4951
